recipes/discord/icon.svg

<svg height="80" viewBox="0 0 80 80" width="80" xmlns="http://www.w3.org/2000/svg"><path d="m61.7096052 0h-53.52159936c-4.51338858 0-8.18800584 3.67461726-8.18800584 8.22794733v54.00089717c0 4.55333 3.67461726 8.2279473 8.18800584 8.2279473h45.29365176l-2.1168988-7.389176 5.1125108 4.7530376 4.8329204 4.4734471 8.5874209 7.5888835v-71.65503667c0-4.55333007-3.6746173-8.22794733-8.1880057-8.22794733zm-15.417416 52.1635885s-1.4378938-1.7174842-2.6361384-3.2352609c5.2323353-1.477835 7.22941-4.7530375 7.22941-4.7530375-1.6376011 1.0784202-3.1953194 1.8373087-4.5932716 2.356548-1.9970747.8387713-3.9142662 1.3979522-5.7915164 1.7174842-3.8343831.7189469-7.3492344.5192393-10.3448465-.0399415-2.2766648-.4393565-4.233798-1.0784203-5.8713992-1.7174843-.9186543-.3594733-1.9171916-.7988297-2.9157289-1.3580106-.1198245-.0798829-.2396489-.1198245-.3594734-.1997073-.079883-.0399416-.1198245-.0798832-.159766-.1198247-.7189469-.3994149-1.1183618-.6790054-1.1183618-.6790054s1.9171916 3.1953193 6.9897611 4.7130963c-1.1982447 1.5177766-2.6760799 3.3151437-2.6760799 3.3151437-8.8270698-.2795904-12.1821551-6.0711069-12.1821551-6.0711069 0-12.8611604 5.7515749-23.2858897 5.7515749-23.2858897 5.7515748-4.3136811 11.2235593-4.1938566 11.2235593-4.1938566l.3994149.4792978c-7.1894686 2.0769576-10.5046125 5.2323355-10.5046125 5.2323355s.8787128-.4792979 2.356548-1.1583033c4.2737397-1.8772501 7.6687664-2.3964895 9.0667186-2.516314.2396492-.0399414.4393565-.0798829.6790054-.0798829 2.4364311-.319532 5.192394-.399415 8.0681815-.079883 3.7944418.4393564 7.8684738 1.5577182 12.0223891 3.8343832 0 0-3.155378-2.9956119-9.9454315-5.0725695l.5591809-.6390638s5.4719844-.1198245 11.2235593 4.1938566c0 0 5.7515746 10.4247293 5.7515746 23.2858897 0 0-3.3950266 5.7915165-12.2220964 6.0711069zm-18.5727937-18.6526768c-2.2766651 0-4.0740323 1.9970746-4.0740323 4.4335058 0 2.4364308 1.8373087 4.4335055 4.0740323 4.4335055 2.2766648 0 4.0740322-1.9970747 4.0740322-4.4335055.0399413-2.4364312-1.7973674-4.4335058-4.0740322-4.4335058zm14.5786444 0c-2.2766649 0-4.074032 1.9970746-4.074032 4.4335058 0 2.4364308 1.8373084 4.4335055 4.074032 4.4335055 2.2766651 0 4.0740322-1.9970747 4.0740322-4.4335055 0-2.4364312-1.7973671-4.4335058-4.0740322-4.4335058z" fill="#7289da" fill-rule="evenodd" transform="translate(5)"/></svg>

<?xml version="1.0" encoding="UTF-8" standalone="no"?>
<svg width="80px" height="80px" viewBox="0 0 80 80" version="1.1" xmlns="http://www.w3.org/2000/svg" xmlns:xlink="http://www.w3.org/1999/xlink">
    <!-- Generator: Sketch 3.7.2 (28276) - http://www.bohemiancoding.com/sketch -->
    <title>discord</title>
    <desc>Created with Sketch.</desc>
    <defs></defs>
    <g id="icons" stroke="none" stroke-width="1" fill="none" fill-rule="evenodd">
        <g id="discord" fill="#7289DA">
            <g id="discord-seeklogo.com" transform="translate(5.000000, 0.000000)">
                <path d="M61.7096052,0 L8.18800584,0 C3.67461726,0 0,3.67461726 0,8.22794733 L0,62.2288445 C0,66.7821745 3.67461726,70.4567918 8.18800584,70.4567918 L53.4816576,70.4567918 L51.3647588,63.0676158 L56.4772696,67.8206534 L61.31019,72.2941005 L69.8976109,79.882984 L69.8976109,8.22794733 C69.8976109,3.67461726 66.2229936,0 61.7096052,0 L61.7096052,0 Z M46.2921892,52.1635885 C46.2921892,52.1635885 44.8542954,50.4461043 43.6560508,48.9283276 C48.8883861,47.4504926 50.8854608,44.1752901 50.8854608,44.1752901 C49.2478597,45.2537103 47.6901414,46.0125988 46.2921892,46.5318381 C44.2951145,47.3706094 42.377923,47.9297903 40.5006728,48.2493223 C36.6662897,48.9682692 33.1514384,48.7685616 30.1558263,48.2093808 C27.8791615,47.7700243 25.9220283,47.1309605 24.2844271,46.4918965 C23.3657728,46.1324232 22.3672355,45.6930668 21.3686982,45.1338859 C21.2488737,45.054003 21.1290493,45.0140614 21.0092248,44.9341786 C20.9293418,44.894237 20.8894003,44.8542954 20.8494588,44.8143539 C20.1305119,44.414939 19.731097,44.1353485 19.731097,44.1353485 C19.731097,44.1353485 21.6482886,47.3306678 26.7208581,48.8484448 C25.5226134,50.3662214 24.0447782,52.1635885 24.0447782,52.1635885 C15.2177084,51.8839981 11.8626231,46.0924816 11.8626231,46.0924816 C11.8626231,33.2313212 17.614198,22.8065919 17.614198,22.8065919 C23.3657728,18.4929108 28.8377573,18.6127353 28.8377573,18.6127353 L29.2371722,19.0920331 C22.0477036,21.1689907 18.7325597,24.3243686 18.7325597,24.3243686 C18.7325597,24.3243686 19.6112725,23.8450707 21.0891077,23.1660653 C25.3628474,21.2888152 28.7578741,20.7695758 30.1558263,20.6497513 C30.3954755,20.6098099 30.5951828,20.5698684 30.8348317,20.5698684 C33.2712628,20.2503364 36.0272257,20.1704534 38.9030132,20.4899854 C42.697455,20.9293418 46.771487,22.0477036 50.9254023,24.3243686 C50.9254023,24.3243686 47.7700243,21.3287567 40.9799708,19.2517991 L41.5391517,18.6127353 C41.5391517,18.6127353 47.0111361,18.4929108 52.762711,22.8065919 C52.762711,22.8065919 58.5142856,33.2313212 58.5142856,46.0924816 C58.5142856,46.0924816 55.119259,51.8839981 46.2921892,52.1635885 L46.2921892,52.1635885 Z M27.7193955,33.5109117 C25.4427304,33.5109117 23.6453632,35.5079863 23.6453632,37.9444175 C23.6453632,40.3808483 25.4826719,42.377923 27.7193955,42.377923 C29.9960603,42.377923 31.7934277,40.3808483 31.7934277,37.9444175 C31.833369,35.5079863 29.9960603,33.5109117 27.7193955,33.5109117 L27.7193955,33.5109117 Z M42.2980399,33.5109117 C40.021375,33.5109117 38.2240079,35.5079863 38.2240079,37.9444175 C38.2240079,40.3808483 40.0613163,42.377923 42.2980399,42.377923 C44.574705,42.377923 46.3720721,40.3808483 46.3720721,37.9444175 C46.3720721,35.5079863 44.574705,33.5109117 42.2980399,33.5109117 L42.2980399,33.5109117 Z" id="Shape"></path>
            </g>
        </g>
    </g>
</svg>
